public/topics/17.svg

<svg width="250" height="250" viewBox="0 0 250 250" fill="none" xmlns="http://www.w3.org/2000/svg">
<rect width="250" height="250" rx="30" fill="#330099"/>
<path d="M91.6 89.8C90.2667 115.933 89.6 136.733 89.6 152.2C89.6 160.2 89.8 167.8 90.2 175C91.2667 175.8 93.3333 176.2 96.4 176.2L101 176C102.867 175.733 104.6 175.6 106.2 175.6C109.667 175.6 112.333 176.2 114.2 177.4C116.2 178.6 117.2 180.933 117.2 184.4C117.2 187.733 116.2 190.333 114.2 192.2C112.333 194.067 108.4 195 102.4 195C97.3333 195 91.2 194.6 84 193.8C82.2667 193.667 80.6 193.533 79 193.4C77.4 193.267 75.9333 193.2 74.6 193.2C67.2667 193.333 61.8 193.6 58.2 194C54.6 194.4 50.5333 194.6 46 194.6C41.8667 194.6 39.8 191.467 39.8 185.2C39.8 179.2 43.6667 176.2 51.4 176.2C52.6 176.2 54.5333 176.333 57.2 176.6C59.4667 177 61.8667 177.2 64.4 177.2C65.8667 177.2 67.0667 177.133 68 177C68.1333 168.067 68.6 155.067 69.4 138C70.2 118 70.6 103.2 70.6 93.6C69.9333 93.7333 67.6 94.6667 63.6 96.4C57.4667 99.4667 52.9333 101 50 101C48.4 101 46.9333 100.2 45.6 98.6C44.2667 96.8667 43.6 94.8667 43.6 92.6C43.6 90.3333 45 88.1333 47.8 86C50.6 83.8667 55.1333 81.0667 61.4 77.6C64.8667 75.8667 68.2 73.9333 71.4 71.8C72.2 71.2667 73.3333 70.7333 74.8 70.2C76.4 69.6667 77.6 69.4 78.4 69.4C81.8667 69.4 85 70.1333 87.8 71.6C90.7333 72.9333 92.2 74.7333 92.2 77L91.6 89.8ZM216.373 78.2C214.64 86.3333 212.44 94.4 209.773 102.4C207.24 110.4 203.973 119.6 199.973 130C193.173 148.267 188.373 163 185.573 174.2C183.307 181.8 181.173 187.267 179.173 190.6C177.173 193.933 174.84 195.6 172.173 195.6C170.04 195.6 167.173 194.333 163.573 191.8C162.64 190.6 162.173 188.933 162.173 186.8C162.173 185.067 162.64 182.533 163.573 179.2C164.507 175.733 165.64 171.933 166.973 167.8L169.373 160.6C171.107 154.867 174.04 147.133 178.173 137.4C181.24 129.933 183.973 122.733 186.373 115.8C188.907 108.867 191.373 100.6 193.773 91C186.84 93.1333 179.973 94.2 173.173 94.2C169.84 94.2 164.773 93.7333 157.973 92.8C152.373 92 148.373 91.6 145.973 91.6C146.107 93.6 147.107 97.4 148.973 103C151.24 108.733 152.373 113.067 152.373 116C152.373 117.733 151.773 119.2 150.573 120.4C149.373 121.6 147.44 122.2 144.773 122.2C141.307 122.2 138.64 121.133 136.773 119C135.04 116.733 133.573 114.2 132.373 111.4C131.307 108.467 130.507 106.467 129.973 105.4C128.107 101.133 126.64 96.7333 125.573 92.2C124.507 87.5333 123.973 83.4 123.973 79.8C123.973 77.6667 124.507 75.8 125.573 74.2C126.773 72.6 128.107 71.8 129.573 71.8C131.573 72.0667 134.573 72.6 138.573 73.4C144.973 74.4667 150.307 75.3333 154.573 76C158.973 76.5333 163.64 76.8 168.573 76.8C180.707 76.8 190.04 74.6667 196.573 70.4C197.507 69.8667 198.907 69.6 200.773 69.6C204.24 69.6 207.707 70.4667 211.173 72.2C214.64 73.8 216.373 75.8 216.373 78.2Z" fill="white"/>
</svg>

<svg xmlns="http://www.w3.org/2000/svg" width="250" height="250" fill="none" viewBox="0 0 250 250"><rect width="250" height="250" fill="#309" rx="30"/><path fill="#fff" d="M91.6 89.8q-2 39.2-2 62.4 0 12 .6 22.8 1.6 1.2 6.2 1.2l4.6-.2q2.8-.4 5.2-.4 5.2 0 8 1.8 3 1.8 3 7 0 5-3 7.8-2.8 2.8-11.8 2.8-7.6 0-18.4-1.2a789 789 0 0 1-5-.4 54 54 0 0 0-4.4-.2q-11 .2-16.4.8t-12.2.6q-6.2 0-6.2-9.4 0-9 11.6-9 1.8 0 5.8.4 3.4.6 7.2.6 2.2 0 3.6-.2.2-13.4 1.4-39 1.2-30 1.2-44.4-1 .2-7 2.8Q54.4 101 50 101q-2.4 0-4.4-2.4-2-2.6-2-6t4.2-6.6 13.6-8.4a93 93 0 0 0 10-5.8q1.2-.8 3.4-1.6 2.4-.8 3.6-.8 5.2 0 9.4 2.2 4.4 2 4.4 5.4zm124.773-11.6a224 224 0 0 1-6.6 24.2q-3.8 12-9.8 27.6-10.2 27.4-14.4 44.2-3.4 11.4-6.4 16.4t-7 5q-3.2 0-8.6-3.8-1.4-1.8-1.4-5 0-2.6 1.4-7.6 1.4-5.2 3.4-11.4l2.4-7.2q2.6-8.6 8.8-23.2 4.6-11.2 8.2-21.6 3.8-10.4 7.4-24.8-10.4 3.2-20.6 3.2-5 0-15.2-1.4-8.4-1.2-12-1.2.201 3 3 11.4 3.4 8.6 3.4 13 0 2.6-1.8 4.4t-5.8 1.8q-5.2 0-8-3.2-2.6-3.4-4.4-7.6-1.599-4.4-2.4-6a77 77 0 0 1-4.4-13.2q-1.6-7-1.6-12.4 0-3.2 1.6-5.6 1.8-2.4 4-2.4 3 .4 9 1.6 9.6 1.6 16 2.6 6.6.8 14 .8 18.2 0 28-6.4 1.401-.8 4.2-.8 5.2 0 10.4 2.6 5.2 2.4 5.2 6"/></svg>
